X: 36268
T: Seamless Gutter, The
R: reel
M: 4/4
K: Edorian
E2 GF EDB,D|EFGF D4|E2 GF EDB,D|GABA F2 E2:|
e2 de BAGB|e2 de B3 d|e2 de BAGA|BGAF E3 d|
e2 de BAGB|g2 fe d2 ez|e2 de BAGA|BGAF E4|

